X:1
T:Gabriel's oboe
T:Gabriel's oboe
T:The Mission
T:E. Morricone
T:GOM
C:E. Morricone
Z:GOM
L:1/8
Q:1/4=58
M:4/4
K:C
V:1 bass nm="Fagot" snm="Fag."
V:1
 z8 | z8 |: (G,,/A,,/G,,/F,,/ G,,4- G,,)(G,, | C,D,/C,/ B,,/C,/B,,/A,,/ A,,G,, G,,2- | %4
 G,,3) (G,, C,D,/C,/ B,,C,/B,,/ | A,,4- A,,)(C,B,,A,, | (3G,,F,,G,,- G,,4) z (G,, | %7
 E,D,)(D,C,) C,3 (G,, | E,/D,/)(D,/C,/) C,4- C,(B,,/C,/ | A,,4- A,,)(A,,C,F, | F,E,) E,4 (C,>A,) | %11
 A,6- A,G, | G,8- | G,2 z2 z4 :| z8 | z8 | z8 | z8 | z4 z2 z (G,, | E,D,)(D,C,) C,3 (G,, | %20
 E,/D,/)(D,/C,/) C,4- C,(B,,/C,/ | A,,4- A,,)(A,,C,F, | F,E,) E,4 (C,>A,) | A,6- A,G, | %24
 G,6 (F,E,) | D,6 E,2 |[M:3/4] E,6- | E,4 (E,2 |[M:6/4] F,2 E,2 D,4- D,2) C,2 |[M:4/4] C,8- | %30
 C,8 |] %31

